X:1
T:Title
%%score 1 { 2 | 3 }
L:1/8
Q:1/4=97
M:3/4
K:F
V:1 treble nm="Grand Piano, Soprano"
V:2 treble nm="Choir Pad, Zaragoza, Lowry"
V:3 bass 
V:1
 [FA]>[GB] [Ac]3 [FA] | [GB]>[EG] [CF]2 C2 | (3[CF]G[FA] [EG]3 [EG] | [FA]>[GB] [FA]4 | %4
w: By~Robert~Lowry,~1884 * * *||||
 [FA]>[GB] [Ac]3 [FA] | [GB]>[EG] [CF]2 C2 | (3[C-F][C-G][CFA] [EG]>[EG] [Ec]2 | [CE]2 [CF]4 | %8
w: ||||
 [CA]2 [DA]3 D | [DF]>[DF] [^CE]2 D2 | [A,F]>[A,F] [CG]3 [CE] | [DF]>[=B,D] C4 | [CA]2 [Fc]3 [FA] | %13
w: |||||
 [GB]>[EG] F2 [FB]2 | [GB]>[GB] [FA]>[EG] [Ec]2 | [CE]2 [CF]4- | [CF]4 z2 |] %17
w: ||||
V:2
 C>C C3 C | C>[K:bass]B, A,2 A,2 | (3B,B,[K:treble]C C3 C | C>C C4 | C>C C3 C | %5
 C>[K:bass]B, A,2 A,2 | (3A,B,[K:treble]C C>C G,2 | B,2[K:bass] A,4 | F,2 F,3 F, | A,>A, G,2 F,2 | %10
 F,>F, E,3 G, | G,>F, E,4 | F,2 A,3[K:treble] C | C>B, A,2 D2 | D>D C>[K:bass]C G,2 | B,2 A,4- | %16
 A,4 z2 |] %17
V:3
 F,>F, F,3 F, | C,>C, F,2 F,2 | (3:2:2F,2 F, C,3 C, | C,>C, F,4 | F,>F, F,3 F, | C,>C, F,2 F,2 | %6
 (3:2:2F,2 F, C,>C, C,2 | C,2 F,4 | z2 D,3 D, | D,>D, A,,2 D,2 | D,>D, C,3 C, | G,,>G,, C,4 | %12
 z2 F,3 F, | C,>C, D,2 B,,2 | G,,>G,, C,>C, C,2 | C,2 [F,,F,]4- | [F,,F,]4 z2 |] %17

